src/assets/icons/news.svg

<svg width="24" height="24" viewBox="0 0 24 24" fill="none" xmlns="http://www.w3.org/2000/svg"><path d="M6.00039 7.79961C6.00039 7.46824 6.26902 7.19961 6.60039 7.19961H15.0004C15.3318 7.19961 15.6004 7.46824 15.6004 7.79961C15.6004 8.13098 15.3318 8.39961 15.0004 8.39961H6.60039C6.26902 8.39961 6.00039 8.13098 6.00039 7.79961Z" fill="currentColor"></path><path d="M12.6004 10.7996C12.269 10.7996 12.0004 11.0682 12.0004 11.3996C12.0004 11.731 12.269 11.9996 12.6004 11.9996H15.0004C15.3318 11.9996 15.6004 11.731 15.6004 11.3996C15.6004 11.0682 15.3318 10.7996 15.0004 10.7996H12.6004Z" fill="currentColor"></path><path d="M12.0004 14.9996C12.0004 14.6682 12.269 14.3996 12.6004 14.3996H15.0004C15.3318 14.3996 15.6004 14.6682 15.6004 14.9996C15.6004 15.331 15.3318 15.5996 15.0004 15.5996H12.6004C12.269 15.5996 12.0004 15.331 12.0004 14.9996Z" fill="currentColor"></path><path d="M6.60039 10.7996C6.26902 10.7996 6.00039 11.0682 6.00039 11.3996V14.9996C6.00039 15.331 6.26902 15.5996 6.60039 15.5996H10.2004C10.5318 15.5996 10.8004 15.331 10.8004 14.9996V11.3996C10.8004 11.0682 10.5318 10.7996 10.2004 10.7996H6.60039ZM7.20039 14.3996V11.9996H9.60039V14.3996H7.20039Z" fill="currentColor"></path><path d="M2.40039 5.99961C2.40039 4.67413 3.47491 3.59961 4.80039 3.59961H16.8004C18.1259 3.59961 19.2004 4.67413 19.2004 5.99961V7.19961C20.5259 7.19961 21.6004 8.27413 21.6004 9.59961V16.1996C21.6004 17.8565 20.2572 19.1996 18.6004 19.1996H5.40039C3.74354 19.1996 2.40039 17.8565 2.40039 16.1996V5.99961ZM18.0004 5.99961C18.0004 5.33687 17.4631 4.79961 16.8004 4.79961L4.80039 4.79961C4.13765 4.79961 3.60039 5.33687 3.60039 5.99961L3.60039 16.1996C3.60039 17.1937 4.40628 17.9996 5.40039 17.9996H18.6004C19.5945 17.9996 20.4004 17.1937 20.4004 16.1996V9.59961C20.4004 8.93687 19.8631 8.39961 19.2004 8.39961V16.1996C19.2004 16.531 18.9318 16.7996 18.6004 16.7996C18.269 16.7996 18.0004 16.531 18.0004 16.1996V5.99961Z" fill="currentColor"></path></svg>

<svg xmlns="http://www.w3.org/2000/svg" width="24" height="24" fill="none"><path fill="currentColor" d="M6 7.8a.6.6 0 0 1 .6-.6H15a.6.6 0 1 1 0 1.2H6.6a.6.6 0 0 1-.6-.6ZM12.6 10.8a.6.6 0 1 0 0 1.2H15a.6.6 0 1 0 0-1.2h-2.4ZM12 15a.6.6 0 0 1 .6-.6H15a.6.6 0 1 1 0 1.2h-2.4a.6.6 0 0 1-.6-.6ZM6.6 10.8a.6.6 0 0 0-.6.6V15a.6.6 0 0 0 .6.6h3.6a.6.6 0 0 0 .6-.6v-3.6a.6.6 0 0 0-.6-.6H6.6Zm.6 3.6V12h2.4v2.4H7.2Z"/><path fill="currentColor" d="M2.4 6a2.4 2.4 0 0 1 2.4-2.4h12A2.4 2.4 0 0 1 19.2 6v1.2a2.4 2.4 0 0 1 2.4 2.4v6.6a3 3 0 0 1-3 3H5.4a3 3 0 0 1-3-3V6ZM18 6a1.2 1.2 0 0 0-1.2-1.2h-12A1.2 1.2 0 0 0 3.6 6v10.2A1.8 1.8 0 0 0 5.4 18h13.2a1.8 1.8 0 0 0 1.8-1.8V9.6a1.2 1.2 0 0 0-1.2-1.2v7.8a.6.6 0 1 1-1.2 0V6Z"/></svg>
